src/assets/duotone/Import2.svg

<?xml version="1.0" encoding="UTF-8"?>
<svg width="24" height="24" viewBox="0 0 24 24" xmlns="http://www.w3.org/2000/svg">
 <path d="M16.19 2H7.81C4.17 2 2 4.17 2 7.81V16.18C2 19.83 4.17 22 7.81 22H16.18C19.82 22 21.99 19.83 21.99 16.19V7.81C22 4.17 19.83 2 16.19 2Z" opacity=".4"/>
 <path d="m7.75 17.5h4.83c0.41 0 0.75-0.34 0.75-0.75s-0.34-0.75-0.75-0.75h-3.02l7.72-7.72c0.29-0.29 0.29-0.77 0-1.06-0.15-0.15-0.34-0.22-0.53-0.22s-0.38 0.07-0.53 0.22l-7.72 7.72v-3.02c0-0.41-0.34-0.75-0.75-0.75s-0.75 0.34-0.75 0.75v4.83c0 0.41 0.34 0.75 0.75 0.75z"/>
</svg>

<svg width="24" height="24" viewBox="0 0 24 24"  xmlns="http://www.w3.org/2000/svg">
<path opacity="0.4" d="M16.19 2H7.81C4.17 2 2 4.17 2 7.81V16.18C2 19.83 4.17 22 7.81 22H16.18C19.82 22 21.99 19.83 21.99 16.19V7.81C22 4.17 19.83 2 16.19 2Z" />
<path d="M7.75 17.5H12.58C12.99 17.5 13.33 17.16 13.33 16.75C13.33 16.34 12.99 16 12.58 16H9.56L17.28 8.28C17.57 7.99 17.57 7.51 17.28 7.22C17.13 7.07 16.94 7 16.75 7C16.56 7 16.37 7.07 16.22 7.22L8.5 14.94V11.92C8.5 11.51 8.16 11.17 7.75 11.17C7.34 11.17 7 11.51 7 11.92V16.75C7 17.16 7.34 17.5 7.75 17.5Z" />
</svg>
